X: 77
T:Brian O'Lynn
M:6/8
L:1/8
F:http://blackrosetheband.googlepages.com/ABCTUNES.ABC May 2009
S:Patrick Street - 3 Irish times 3 - Track 3
K:G
"C"cBc A2G|EcB cde|"D"dcA A2G|Ade fed|
"C"cBc A2G|EcB cde|"D"dcA AGE|GED D3:|
:"C"g3 ged|cAB c2d|"E"e2a age|ed^c def|
"C"g3 ged|cAB cde|"D"fed cAG|EAG A3:||

